X:1
T:Burschenlust
T:Friedrich Silcher
T:Emanuel Geibel
T:Burschenlust
T:CPDL   —   Creative Commons Attribution Non Commercial 3.0
T:CPDL   —   Creative Commons Attribution Non Commercial 3.0
C:Friedrich Silcher
Z:Emanuel Geibel
Z:CPDL   —   Creative Commons Attribution Non Commercial 3.0
%%score [ ( 1 2 3 4 ) ( 5 6 7 8 ) ]
L:1/8
M:3/4
K:A
V:1 treble-8 nm="Tenor"
V:2 treble-8 
V:3 treble-8 
V:4 treble-8 
V:5 bass nm="Bass"
V:6 bass 
V:7 bass 
V:8 bass 
V:1
 AB | c2 c3 d | f2 e3 c | e>d d2 e2 | c4 | AB | c2 c3 d | f2 e3 c | (e>d) d2 e2 | c4 (cc) | %10
w: 1.  Der *|Mai ist ge-|kom- men, die|Bäu- me schla- gen|aus,|da *|blei- be, wer|Lust hat, mit|Sor- * gen zu-|haus; wie die|
w: 2.  Herr *|Va- ter, Frau|Mut- ter, dass|Gott _ euch be-|hüt',|wer *|weiß, wo der|Fer- ne mein|Glück _ mir noch|blüht? Es _|
w: 3.  Frisch *|auf drum, frisch|auf _ im|hel- len Son- nen-|strahl|wohl *|ü- ber die|Ber- ge, wohl|durch das tie- fe|Tal. Die _|
 B-B e3 e | ^d2 f3 f | (b>a) g>f e>^d | e4 e=d | c>c c3 d | f2 e3 c | e>d d2 e2 | c4 |] %18
w: Wol- * ken dort|wan- dern am|himm- * li- * schen _|Zelt, so _|steht auch mir der|Sinn in die|wei- te, wei- te|Welt.|
w: gibt so man- che|Stra- ße, da|nim- mer ich * mar- *|schiert, es *|gibt so man- chen|Wein, den ich|nim- mer noch pro-|biert.|
w: Quel- * len er-|klin- gen, die|Bäu- me rau- * schen _|all', mein *|Herz ist wie ’ne|Ler- che und|stim- met ein mit|Schall.|
V:2
 AG | A2 A3 B | d2 c3 A | c>B B2 G2 | A4 | AG | A2 A3 B | d2 c3 A | (c>B) B2 G2 | A4 (AA) | %10
 G-G B3 B | B2 ^d3 d | (^d>d) d2 B2 | B4 GB | A>A A3 B | d2 c3 A | c>B B2 G2 | A4 |] %18
V:3
 x2 | x6 | x6 | x6 | x4 | x2 | x4 d x | x4 c x | x6 | x6 | x6 | x6 | x6 | x6 | x6 | x6 | x6 | x4 |] %18
w: ||||||||||||||||||
w: ||||||in||||||||||||
V:4
 x2 | x6 | x6 | x6 | x4 | x2 | x4 B x | x4 A x | x6 | x6 | x6 | x6 | x11/2 B/ | x6 | x6 | x6 | x6 | %17
 x4 |] %18
V:5
 E,2 | E,2 E,3 E, | E,2 A,3 A, | G,>G, G,2 E,2 | E,4 | E,2 | E,2 E,3 E, | E,2 A,3 A, | %8
w: 4.  Und|a- bends im|Städt- lein, da|kehr ich durs- tig|ein:|„Herr|Wirt, ei- ne|Kan- ne, ne|
w: 5.  Und  |find' i kei- ne|Her- berg, so|lieg _ ich zu|Nacht|wohl|un- ter em|Him- mel, die|
w: 6.   O  |Wan- dern, o|Wan- dern, du|frei- e Bur- schen-|lust!|da|we- het tes|O- dem so|
 G,->G, G,2 E,2 | E,4 (E,E,) | E,-E, G,3 G, | F,2 A,3 A, | (F,>F,) A,2 A,2 | G,4 E,2 | %14
w: Kan- ne blan- ken|Wein! er- *|grei- * fe die|Fie- del, du|lust’- ger Spiel- mann|du, von|
w: Ster- ne hal- ten|Wacht; im _|Win- * de die|Lin- de, die|rauscht _ mich ein|mach, es|
w: frisch _ in die|Brust, da _|sin- * get und|jauch- zet das|Herz im Him- mels-|zelt: wie|
 E,>E, E,3 E, | A,2 A,3 A, | G,>G, G,2 E,2 | E,4 |] %18
w: mei- nem Schatz das|Lie- del, das|sing _ ich da-|zu.“|
w: küs- set in der|Frü- he das|Mor- gen- rot mich|wach.|
w: bist du doch so|schön, o du|wei- te, wei- te|Welt!|
V:6
 A,,C, | A,,2 A,,3 A,, | A,,2 A,,3 A,, | E,>E, E,2 E,2 | A,,4 | A,,C, | A,,2 A,,3 A,, | %7
 A,,2 A,,3 A, | E,->E, E,2 E,2 | A,,4 (A,,A,,) | E,-E, E,3 E, | B,,2 B,,3 B,, | %12
 (B,,>B,,) B,,2 B,,2 | E,4 E,2 | A,,>A,, A,,3 A,, | A,,2 A,,3 A, | E,>E, E,2 E,2 | A,,4 |] %18
V:7
 x2 | x6 | x6 | x6 | x4 | x2 | x4 E, x | x4 A, x | x6 | x6 | x6 | x6 | x11/2 A,/ | x6 | x6 | x6 | %16
w: |||||||ei \-|||||||||
w: ||||||blau \-||||||ge \-||||
w: ||||||Got \-||||||||||
 x6 | x4 |] %18
w: ||
w: ||
w: ||
V:8
 x2 | x6 | x6 | x6 | x4 | x2 | x4 A,, x | x4 A, x | x6 | x6 | x6 | x6 | x11/2 B,,/ | x6 | x6 | x6 | %16
 x6 | x4 |] %18

